images/icon-cta.svg

<svg width="64" height="64" viewBox="0 0 64 64" fill="none" xmlns="http://www.w3.org/2000/svg">
<g clip-path="url(#clip0_143_2550)">
<path fill-rule="evenodd" clip-rule="evenodd" d="M21.562 0.145426C13.4889 1.05755 6.1399 6.27905 2.50227 13.6873C-0.902229 20.6209 -0.831729 28.8018 2.69127 35.5993L3.3584 36.8864L1.73265 42.7677C0.838646 46.0024 0.133646 48.6757 0.166146 48.7082C0.198646 48.7407 2.8719 48.0357 6.10665 47.1417L11.9879 45.5159L13.275 46.1831C16.0264 47.6091 19.2059 48.5205 22.462 48.8171L23.362 48.8989L23.6981 49.9181C25.6905 55.9604 30.6394 60.8871 36.768 62.9294C39.178 63.7326 40.3833 63.9203 43.187 63.9293C45.1155 63.9354 45.9728 63.8843 46.937 63.7056C48.6945 63.3798 50.9725 62.6175 52.5461 61.8288L53.8871 61.1566L58.8298 62.5251C61.5483 63.2778 63.7996 63.8664 63.8329 63.8332C63.8661 63.7999 63.2775 61.5485 62.5248 58.8301L61.1563 53.8874L61.8285 52.5464C62.6173 50.9728 63.3795 48.6948 63.7053 46.9373C63.884 45.9731 63.9351 45.1158 63.929 43.1873C63.92 40.3836 63.7323 39.1783 62.9291 36.7683C60.8868 30.6397 55.9601 25.6908 49.9178 23.6984L48.8986 23.3623L48.8164 22.4623C47.8323 11.6868 40.1635 2.89218 29.7349 0.579176C27.2008 0.0171762 24.1368 -0.145449 21.562 0.145426ZM22.2495 3.88843C15.2369 4.68268 9.08915 8.97368 5.91827 15.2872C4.31252 18.4843 3.52377 22.5997 3.85102 26.0724C3.93152 26.9263 4.0859 28.0608 4.19415 28.5936C4.63965 30.7868 5.78165 33.6233 6.96127 35.4664C7.21502 35.8629 7.4154 36.2717 7.40665 36.3748C7.39777 36.4779 6.96852 38.0798 6.45277 39.9346C5.93702 41.7893 5.52677 43.3187 5.54115 43.3332C5.55565 43.3475 7.08502 42.9373 8.93977 42.4216C10.7945 41.9058 12.3964 41.4766 12.4995 41.4677C12.6026 41.4589 13.0114 41.6593 13.4079 41.9131C14.4808 42.5997 16.1678 43.4194 17.437 43.8709C23.5388 46.0414 30.2515 45.2696 35.6245 41.7798C42.007 37.6344 45.6975 30.1866 45.0196 22.8192C44.834 20.8012 44.6015 19.6688 44.0016 17.8617C42.31 12.7647 38.4851 8.37843 33.5871 5.91855C30.2231 4.22905 25.9685 3.46718 22.2495 3.88843ZM22.3745 11.5413C19.4044 12.4226 17.3145 14.9438 16.9433 18.0936L16.8659 18.7498H18.8078H20.7495V18.3971C20.7495 17.2884 21.7516 15.8769 22.9021 15.3652C24.3645 14.7147 26.1163 15.0853 27.1819 16.2706C27.8899 17.0579 28.1669 17.8743 28.104 18.9878C28.0249 20.3867 27.7568 20.7562 24.9655 23.3123L22.5085 25.5623L22.504 27.8436L22.4995 30.1248H24.437H26.3745V28.6418V27.1587L28.1736 25.5206C30.4936 23.4081 31.1644 22.4869 31.6974 20.6819C31.9918 19.6848 31.9916 17.8162 31.6971 16.8123C30.5015 12.7374 26.3173 10.3716 22.3745 11.5413ZM48.685 27.7288C48.6454 27.9809 48.4719 28.8517 48.2994 29.6637C46.5328 37.9808 40.2881 44.9196 32.1306 47.6298C30.9079 48.0361 30.0933 48.2311 27.6436 48.7041C27.2678 48.7766 27.3233 49.0273 28.0604 50.5886C30.3435 55.4242 34.8703 58.8803 40.3278 59.9542C41.9696 60.2773 44.9213 60.2517 46.562 59.9002C48.7644 59.4283 50.6494 58.6841 52.328 57.6241C52.7626 57.3494 53.2183 57.1252 53.3401 57.1257C53.4621 57.1262 54.6581 57.4315 55.9978 57.8046C57.3374 58.1774 58.4446 58.4713 58.4584 58.4576C58.4721 58.4438 58.1785 57.3368 57.806 55.9974C57.4334 54.6582 57.1276 53.4612 57.1265 53.3376C57.1254 53.2139 57.3206 52.8062 57.5604 52.4314C58.6264 50.7651 59.4323 48.7483 59.8961 46.5858C60.1138 45.5718 60.1689 44.9048 60.1668 43.3123C60.1638 41.0681 59.9249 39.6212 59.2344 37.6638C57.6269 33.1073 54.0964 29.4399 49.5318 27.5852L48.757 27.2703L48.685 27.7288ZM22.4995 35.7498V37.6248H24.437H26.3745V35.7498V33.8748H24.437H22.4995V35.7498Z" fill="white"/>
</g>
<defs>
<clipPath id="clip0_143_2550">
<rect width="64" height="64" fill="white"/>
</clipPath>
</defs>
</svg>

<svg xmlns="http://www.w3.org/2000/svg" width="64" height="64" fill="none" viewBox="0 0 64 64"><g clip-path="url(#a)"><path fill="#fff" fill-rule="evenodd" d="M21.562.145C13.489 1.058 6.14 6.28 2.502 13.687c-3.404 6.934-3.334 15.115.19 21.912l.666 1.287-1.625 5.882c-.894 3.234-1.6 5.908-1.567 5.94s2.706-.672 5.94-1.566l5.882-1.626 1.287.667c2.751 1.426 5.93 2.337 9.187 2.634l.9.082.336 1.02c1.992 6.041 6.941 10.968 13.07 13.01 2.41.804 3.615.991 6.419 1 1.928.006 2.786-.045 3.75-.223 1.758-.326 4.035-1.089 5.61-1.877l1.34-.672 4.943 1.368c2.718.753 4.97 1.341 5.003 1.308s-.555-2.285-1.308-5.003l-1.369-4.943.672-1.34c.79-1.574 1.551-3.852 1.877-5.61.179-.964.23-1.821.224-3.75-.009-2.803-.197-4.009-1-6.419-2.042-6.128-6.969-11.077-13.011-13.07l-1.02-.336-.082-.9C47.832 11.687 40.163 2.892 29.735.58 27.2.017 24.137-.145 21.562.145m.688 3.743a20.92 20.92 0 0 0-16.332 11.4C4.313 18.483 3.524 22.6 3.851 26.071c.08.854.235 1.989.343 2.522.446 2.193 1.588 5.03 2.767 6.872.254.397.454.806.446.909-.01.103-.438 1.705-.954 3.56s-.926 3.384-.912 3.398 1.544-.396 3.399-.911c1.854-.516 3.456-.945 3.56-.954.103-.01.511.191.908.445 1.073.687 2.76 1.506 4.029 1.958 6.102 2.17 12.814 1.399 18.187-2.091 6.383-4.146 10.073-11.593 9.396-18.96-.186-2.019-.419-3.151-1.018-4.958-1.692-5.097-5.517-9.484-10.415-11.943-3.364-1.69-7.619-2.452-11.338-2.03m.125 7.653c-2.97.882-5.06 3.403-5.432 6.553l-.077.656h3.884v-.353c0-1.109 1.002-2.52 2.152-3.032a3.75 3.75 0 0 1 4.28.906c.708.787.985 1.603.922 2.717-.08 1.399-.347 1.768-3.139 4.324l-2.456 2.25-.005 2.282-.005 2.28h3.876V27.16l1.799-1.638c2.32-2.113 2.99-3.034 3.523-4.84.295-.996.295-2.865 0-3.869-1.195-4.075-5.38-6.44-9.322-5.27m26.31 16.188c-.04.252-.213 1.123-.386 1.935-1.766 8.317-8.01 15.256-16.168 17.966-1.223.406-2.038.601-4.487 1.074-.376.073-.32.323.416 1.885 2.284 4.835 6.81 8.291 12.268 9.365 1.642.323 4.593.298 6.234-.054 2.202-.472 4.087-1.216 5.766-2.276.435-.275.89-.499 1.012-.498.122 0 1.318.306 2.658.679 1.34.372 2.447.666 2.46.653.014-.014-.28-1.121-.652-2.46-.373-1.34-.678-2.537-.68-2.66 0-.124.195-.532.434-.907 1.066-1.666 1.872-3.683 2.336-5.845.218-1.014.273-1.681.27-3.274-.002-2.244-.241-3.69-.932-5.648-1.607-4.557-5.138-8.224-9.702-10.079l-.775-.315zM22.5 35.749v1.876h3.875v-3.75H22.5z" clip-rule="evenodd"/></g><defs><clipPath id="a"><path fill="#fff" d="M0 0h64v64H0z"/></clipPath></defs></svg>
